picto/funicular-railway-left.svg

<svg class="color-immutable" width="24" height="24" viewBox="0 0 24 24" fill="none" xmlns="http://www.w3.org/2000/svg"><g clip-path="url(#a)"><path d="M0 22.5v-21C0 .675.675 0 1.5 0h21c.825 0 1.5.675 1.5 1.5v21c0 .825-.675 1.5-1.5 1.5h-21C.675 24 0 23.325 0 22.5Z" fill="#2D327D"/><path d="M20.625 17.145A.375.375 0 0 0 21 16.77V8.017a.825.825 0 0 0-.621-.799l-16.35-4.17A.825.825 0 0 0 3 3.847v8.611c0 .172.117.322.284.364l17.25 4.312c.03.007.06.011.091.011ZM7.312 5.025v4.5a.375.375 0 0 1-.375.375H4.125a.375.375 0 0 1-.375-.375v-4.5c0-.207.168-.375.375-.375h2.812c.207 0 .375.168.375.375Zm4.313 1.102v4.5a.375.375 0 0 1-.375.375H8.437a.375.375 0 0 1-.375-.375v-4.5c0-.207.168-.375.375-.375h2.812a.375.375 0 0 1 .376.375Zm4.312 1.098v4.5a.375.375 0 0 1-.375.375H12.75a.375.375 0 0 1-.375-.375v-4.5c0-.207.168-.375.375-.375h2.813c.207 0 .374.168.374.375Zm4.313 1.1v4.5a.375.375 0 0 1-.375.375h-2.812a.375.375 0 0 1-.375-.375v-4.5c0-.207.168-.375.375-.375h2.812c.207 0 .375.168.375.375ZM3 15.727l18 4.5V21L3 16.5v-.773ZM16.821 17.399a1.088 1.088 0 1 1-2.177-.001 1.088 1.088 0 0 1 2.177.001ZM19.527 18.131a1.088 1.088 0 1 1-2.177-.001 1.088 1.088 0 0 1 2.177.001ZM9.382 15.538a1.088 1.088 0 1 1-2.177-.001 1.088 1.088 0 0 1 2.177.001ZM6.62 14.861a1.088 1.088 0 1 1-2.177-.001 1.088 1.088 0 0 1 2.177.001Z" fill="#fff"/></g><defs><clipPath id="a"><path fill="#fff" d="M0 0h24v24H0z"/></clipPath></defs></svg>

<svg class="color-immutable" width="24" height="24" viewBox="0 0 24 24" fill="none" xmlns="http://www.w3.org/2000/svg"><path d="M0 22.5V1.5C0 0.675 0.675 0 1.5 0H22.5C23.325 0 24 0.675 24 1.5V22.5C24 23.325 23.325 24 22.5 24H1.5C0.675 24 0 23.325 0 22.5Z" fill="#2D327D"/><path d="M20.625 17.145C20.832 17.145 21 16.977 21 16.77V8.017C21 7.64 20.744 7.311 20.379 7.218L4.029 3.048C3.962 3.03 3.894 3.022 3.825 3.022C3.369 3.022 3 3.391 3 3.847V12.458C3 12.63 3.117 12.78 3.284 12.822L20.534 17.134C20.564 17.141 20.594 17.145 20.625 17.145ZM7.312 5.025V9.525C7.312 9.732 7.144 9.9 6.937 9.9H4.125C3.918 9.9 3.75 9.732 3.75 9.525V5.025C3.75 4.818 3.918 4.65 4.125 4.65H6.937C7.144 4.65 7.312 4.818 7.312 5.025ZM11.625 6.127V10.627C11.625 10.834 11.457 11.002 11.25 11.002H8.437C8.23 11.002 8.062 10.834 8.062 10.627V6.127C8.062 5.92 8.23 5.752 8.437 5.752H11.249C11.457 5.751 11.625 5.92 11.625 6.127ZM15.937 7.225V11.725C15.937 11.932 15.769 12.1 15.562 12.1H12.75C12.543 12.1 12.375 11.932 12.375 11.725V7.225C12.375 7.018 12.543 6.85 12.75 6.85H15.563C15.77 6.85 15.937 7.018 15.937 7.225ZM20.25 8.325V12.825C20.25 13.032 20.082 13.2 19.875 13.2H17.063C16.856 13.2 16.688 13.032 16.688 12.825V8.325C16.688 8.118 16.856 7.95 17.063 7.95H19.875C20.082 7.95 20.25 8.118 20.25 8.325Z" fill="white"/><path d="M3 15.727L21 20.227V21L3 16.5V15.727Z" fill="white"/><path d="M16.821 17.399C16.821 17.999 16.334 18.487 15.733 18.487C15.133 18.487 14.645 18 14.645 17.399C14.645 16.799 15.132 16.311 15.733 16.311C16.334 16.311 16.821 16.798 16.821 17.399Z" fill="white"/><path d="M19.527 18.131C19.527 18.731 19.04 19.219 18.439 19.219C17.839 19.219 17.351 18.732 17.351 18.131C17.351 17.531 17.838 17.044 18.439 17.044C19.039 17.044 19.527 17.531 19.527 18.131Z" fill="white"/><path d="M9.38197 15.538C9.38197 16.138 8.89497 16.626 8.29397 16.626C7.69397 16.626 7.20697 16.139 7.20697 15.538C7.20697 14.938 7.69397 14.45 8.29397 14.45C8.89497 14.45 9.38197 14.938 9.38197 15.538Z" fill="white"/><path d="M6.62001 14.861C6.62001 15.461 6.13301 15.949 5.53201 15.949C4.93201 15.949 4.44501 15.462 4.44501 14.861C4.44501 14.261 4.93201 13.774 5.53201 13.774C6.13301 13.774 6.62001 14.261 6.62001 14.861Z" fill="white"/></svg>
